assets/svg/gate-bottom.svg

<svg viewBox="0 0 249 298" fill="none" xmlns="http://www.w3.org/2000/svg">
	<path
		d="M124.932 1.54672C124.941 1.56036 124.949 1.57416 124.957 1.58813C125.271 2.11116 125.746 2.8607 126.394 3.77507C127.689 5.60359 129.676 8.09285 132.453 10.7485C138.006 16.0584 146.716 22.0335 159.347 24.7167C210.494 39.7976 247.825 87.1123 247.825 143.145V297.236H0.921387V143.145C0.921387 87.1055 38.2606 39.7862 89.4179 24.7112C103.556 20.545 112.536 14.5827 117.989 9.64282C120.714 7.17371 122.556 4.96226 123.72 3.36205C124.267 2.60935 124.664 1.99197 124.932 1.54672Z"
		stroke="white"/>
</svg>

<svg viewBox="0 0 249 298" fill="none" xmlns="http://www.w3.org/2000/svg"><path d="M124.932 1.547a34.788 34.788 0 0 0 1.462 2.228c1.295 1.829 3.282 4.318 6.059 6.973 5.553 5.31 14.263 11.286 26.894 13.969 51.147 15.08 88.478 62.395 88.478 118.428v154.091H.921V143.145c0-56.04 37.34-103.359 88.497-118.434 14.138-4.166 23.118-10.128 28.571-15.068 2.725-2.47 4.567-4.68 5.731-6.281.547-.753.944-1.37 1.212-1.815Z" stroke="#fff"/></svg>
